X:436
T:An Anglezed bonetou ruz
Z:Jack Campin, http://www.campin.me.uk/
F:Jack Campin's Nine-Note Tunebook
% last edit 03-02-2013
N:http://www.youtube.com/watch?v=J53TgNy6jXI
M:C|
L:1/8
Q:1/2=96
G:an dro
K:AMin
E|A2B2 c3B|cBAc B2AB|c2Bc A3c|BAGA B3:|
E|A2B2 c3c|B2AB G4 ||\
  A2GF E3A|B2c2 A2E2|A2GF E3A|B2c2 A3||

